X:1
T:God Save Our Lord the King
T:God Save Our Lord the King
L:1/8
M:3/4
K:G
V:1 treble 
V:1
 G2 G2 G2 | F3 G A2 | B2 B2 c2 | A3 A B2 | A2 F3 G | G6 || d2 d2 d2 | d3 c B2 | c2 c2 c2 | %9
 c3 B A2 | B2 cB AG | B3 c d2 | e2 A3 G | G6 || %14

